X: 1
T: Polska from H\"alleforsn\"as, S\"ormland
R: polska
%S: s:2 b:10(5+5)
O: Sweden
Z: 2021 John Chambers <jc:trillian.mit.edu>
S: https://app.box.com/s/u6iiren0igvsukrhdducy7orq72jayq8/file/807853400265 Bruce Sagan 2021-5-9
M: 3/4
L: 1/16
K: Am
"^A"|: g3f e2d2 e2c2 | c2Bc d2c2 B2A2 | E3A A2B2 [1,3 c2d2 | e2fe d2ef e4 :|2,4 c2BA | G2A2 A8 :|
"^B"|: E4  A4   B4   | c2Bc d2c2 B2A2 | E3A A2B2 [1,3 c2d2 | e2fe d2ef e4 :|2,4 c2BA | G2A2 A8 :|
